assets/images/footer-img1.svg

<svg width="26" height="20" viewBox="0 0 26 20" fill="none" xmlns="http://www.w3.org/2000/svg">
<g id="logos:mastercard" clip-path="url(#clip0_78_383)">
<path id="Vector" d="M4.72671 19.9007V18.577C4.72671 18.0695 4.41451 17.7386 3.87937 17.7386C3.61186 17.7386 3.322 17.8268 3.12131 18.1137C2.96531 17.871 2.74238 17.7386 2.40794 17.7386C2.18491 17.7386 1.96208 17.8047 1.78363 18.0475V17.7827H1.31543V19.9007H1.78363V18.7314C1.78363 18.3564 1.98432 18.1798 2.29652 18.1798C2.60852 18.1798 2.76473 18.3784 2.76473 18.7314V19.9007H3.23293V18.7314C3.23293 18.3564 3.45576 18.1798 3.74562 18.1798C4.05782 18.1798 4.21382 18.3784 4.21382 18.7314V19.9007H4.72671ZM11.6605 17.7827H10.9025V17.1429H10.4343V17.7827H10.0107V18.2018H10.4342V19.1727C10.4342 19.6581 10.6349 19.9448 11.17 19.9448C11.3707 19.9448 11.5936 19.8787 11.7498 19.7905L11.6159 19.3933C11.4821 19.4815 11.3261 19.5036 11.2146 19.5036C10.9917 19.5036 10.9025 19.3713 10.9025 19.1506V18.2018H11.6605V17.7827ZM15.6291 17.7385C15.3616 17.7385 15.1833 17.871 15.0718 18.0475V17.7827H14.6036V19.9007H15.0718V18.7094C15.0718 18.3564 15.2278 18.1578 15.5176 18.1578C15.6068 18.1578 15.7183 18.1799 15.8075 18.2019L15.9412 17.7607C15.8521 17.7386 15.7183 17.7386 15.6291 17.7386V17.7385ZM9.63167 17.9592C9.40864 17.8047 9.09654 17.7386 8.76209 17.7386C8.22706 17.7386 7.87037 18.0033 7.87037 18.4225C7.87037 18.7756 8.13789 18.9741 8.60609 19.0403L8.82902 19.0624C9.0743 19.1064 9.20805 19.1727 9.20805 19.283C9.20805 19.4374 9.02971 19.5478 8.71751 19.5478C8.40541 19.5478 8.16013 19.4374 8.00403 19.3272L7.7811 19.6801C8.02637 19.8566 8.36082 19.9448 8.69516 19.9448C9.31947 19.9448 9.67626 19.6581 9.67626 19.2609C9.67626 18.8858 9.3864 18.6873 8.94044 18.6211L8.71751 18.599C8.51682 18.5769 8.36082 18.5329 8.36082 18.4005C8.36082 18.246 8.51682 18.1578 8.76209 18.1578C9.02971 18.1578 9.29723 18.2681 9.43098 18.3343L9.63167 17.9592ZM22.0726 17.7386C21.805 17.7386 21.6266 17.871 21.5151 18.0475V17.7827H21.0469V19.9007H21.5151V18.7094C21.5151 18.3564 21.6712 18.1578 21.961 18.1578C22.0502 18.1578 22.1617 18.1799 22.2509 18.2019L22.3847 17.7607C22.2955 17.7386 22.1617 17.7386 22.0726 17.7386ZM16.0973 18.8417C16.0973 19.4815 16.5432 19.9448 17.2344 19.9448C17.5465 19.9448 17.7695 19.8787 17.9924 19.7022L17.7695 19.3272C17.5911 19.4595 17.4128 19.5256 17.2121 19.5256C16.8331 19.5256 16.5655 19.2609 16.5655 18.8417C16.5655 18.4446 16.8331 18.1798 17.2121 18.1578C17.4128 18.1578 17.5911 18.2239 17.7695 18.3564L17.9924 17.9813C17.7695 17.8047 17.5465 17.7386 17.2344 17.7386C16.5432 17.7386 16.0973 18.2019 16.0973 18.8417ZM20.4227 18.8417V17.7827H19.9545V18.0475C19.7984 17.849 19.5755 17.7386 19.2856 17.7386C18.6836 17.7386 18.2154 18.2019 18.2154 18.8417C18.2154 19.4815 18.6836 19.9448 19.2856 19.9448C19.5977 19.9448 19.8207 19.8346 19.9545 19.636V19.9007H20.4227V18.8417ZM18.7059 18.8417C18.7059 18.4666 18.9511 18.1578 19.3524 18.1578C19.7315 18.1578 19.9991 18.4446 19.9991 18.8417C19.9991 19.2168 19.7315 19.5256 19.3524 19.5256C18.9511 19.5035 18.7059 19.2168 18.7059 18.8417ZM13.1098 17.7386C12.4855 17.7386 12.0395 18.1798 12.0395 18.8417C12.0395 19.5036 12.4854 19.9448 13.132 19.9448C13.4441 19.9448 13.7563 19.8566 14.0016 19.6581L13.7786 19.3272C13.6002 19.4595 13.3773 19.5478 13.1544 19.5478C12.8645 19.5478 12.5746 19.4154 12.5077 19.0402H14.0908V18.8638C14.1131 18.1798 13.7118 17.7386 13.1098 17.7386ZM13.1098 18.1357C13.3995 18.1357 13.6003 18.3123 13.6448 18.6432H12.5301C12.5746 18.3564 12.7753 18.1357 13.1098 18.1357ZM24.7257 18.8417V16.9443H24.2575V18.0475C24.1014 17.849 23.8785 17.7386 23.5886 17.7386C22.9866 17.7386 22.5184 18.2019 22.5184 18.8417C22.5184 19.4815 22.9866 19.9448 23.5886 19.9448C23.9008 19.9448 24.1237 19.8346 24.2575 19.636V19.9007H24.7257V18.8417ZM23.009 18.8417C23.009 18.4666 23.2541 18.1578 23.6555 18.1578C24.0346 18.1578 24.3021 18.4446 24.3021 18.8417C24.3021 19.2168 24.0346 19.5256 23.6555 19.5256C23.2541 19.5035 23.009 19.2168 23.009 18.8417ZM7.35748 18.8417V17.7827H6.88928V18.0475C6.73318 17.849 6.51025 17.7386 6.22039 17.7386C5.61843 17.7386 5.15023 18.2019 5.15023 18.8417C5.15023 19.4815 5.61843 19.9448 6.22039 19.9448C6.53259 19.9448 6.75552 19.8346 6.88928 19.636V19.9007H7.35748V18.8417ZM5.61843 18.8417C5.61843 18.4666 5.8637 18.1578 6.26498 18.1578C6.64401 18.1578 6.91162 18.4446 6.91162 18.8417C6.91162 19.2168 6.64401 19.5256 6.26498 19.5256C5.8637 19.5035 5.61843 19.2168 5.61843 18.8417Z" fill="#151618"/>
<path id="Vector_2" d="M9.47559 1.69873H16.4986V14.1863H9.47559V1.69873Z" fill="#FF5F00"/>
<path id="Vector_3" d="M9.92154 7.94261C9.92154 5.40543 11.1255 3.15497 12.9759 1.69879C11.616 0.639799 9.8993 0 8.02648 0C3.58952 0 0 3.55206 0 7.94261C0 12.3331 3.58952 15.8852 8.02638 15.8852C9.8992 15.8852 11.6159 15.2454 12.9759 14.1863C11.1255 12.7523 9.92154 10.4798 9.92154 7.94261Z" fill="#EB001B"/>
<path id="Vector_4" d="M25.9742 7.94261C25.9742 12.3331 22.3847 15.8852 17.9478 15.8852C16.075 15.8852 14.3583 15.2454 12.9983 14.1863C14.8711 12.7303 16.0528 10.4798 16.0528 7.94261C16.0528 5.40543 14.8488 3.15497 12.9983 1.69879C14.3582 0.639799 16.075 0 17.9478 0C22.3847 0 25.9742 3.57417 25.9742 7.94261Z" fill="#F79E1B"/>
</g>
<defs>
<clipPath id="clip0_78_383">
<rect width="26" height="20" fill="white"/>
</clipPath>
</defs>
</svg>

<svg width="26" height="20" fill="none" xmlns="http://www.w3.org/2000/svg"><g clip-path="url(#a)"><path d="M4.727 19.9v-1.323c0-.508-.312-.838-.848-.838-.267 0-.557.088-.758.375-.156-.243-.379-.375-.713-.375a.723.723 0 0 0-.624.308v-.264h-.469V19.9h.469v-1.17c0-.375.2-.551.513-.551.312 0 .468.198.468.551v1.17h.468v-1.17c0-.375.223-.551.513-.551.312 0 .468.198.468.551v1.17h.513Zm6.934-2.117h-.758v-.64h-.469v.64h-.423v.419h.423v.97c0 .486.2.773.736.773.2 0 .424-.066.58-.154l-.134-.398a.74.74 0 0 1-.401.11c-.223 0-.313-.132-.313-.352v-.95h.759v-.418Zm3.968-.045a.63.63 0 0 0-.557.31v-.265h-.468V19.9h.468v-1.192c0-.353.156-.551.446-.551.089 0 .2.022.29.044l.133-.441c-.089-.022-.223-.022-.312-.022Zm-5.997.221c-.223-.154-.535-.22-.87-.22-.535 0-.892.264-.892.683 0 .354.268.552.736.618l.223.022c.245.044.379.11.379.221 0 .154-.178.265-.49.265a1.24 1.24 0 0 1-.714-.22l-.223.352c.245.177.58.265.914.265.624 0 .981-.287.981-.684 0-.375-.29-.574-.736-.64l-.222-.022c-.201-.022-.357-.066-.357-.198 0-.155.156-.243.401-.243.268 0 .535.11.669.176l.2-.375Zm12.44-.22a.63.63 0 0 0-.557.308v-.264h-.468V19.9h.468v-1.192c0-.353.156-.551.446-.551.09 0 .2.022.29.044l.134-.441c-.09-.022-.223-.022-.312-.022Zm-5.975 1.103c0 .64.446 1.103 1.137 1.103.313 0 .535-.066.758-.243l-.223-.375a.907.907 0 0 1-.557.199c-.379 0-.646-.265-.646-.684 0-.397.267-.662.646-.684.2 0 .38.066.558.198l.222-.375c-.223-.176-.445-.242-.758-.242-.69 0-1.137.463-1.137 1.103Zm4.326 0v-1.06h-.468v.265a.809.809 0 0 0-.67-.308c-.601 0-1.07.463-1.07 1.103 0 .64.469 1.103 1.07 1.103.313 0 .536-.11.67-.309v.265h.468v-1.06Zm-1.717 0c0-.375.245-.684.646-.684.38 0 .647.287.647.684 0 .375-.267.684-.647.684-.4-.023-.646-.31-.646-.684Zm-5.596-1.103c-.624 0-1.07.44-1.07 1.103 0 .662.445 1.103 1.092 1.103.312 0 .624-.088.87-.287l-.223-.33c-.179.131-.402.22-.625.22-.29 0-.58-.133-.646-.508h1.583v-.176c.022-.684-.38-1.125-.981-1.125Zm0 .397c.29 0 .49.176.535.507H12.53c.045-.287.245-.507.58-.507Zm11.616.706v-1.898h-.468v1.104a.809.809 0 0 0-.67-.31c-.601 0-1.07.464-1.07 1.104 0 .64.469 1.103 1.07 1.103.313 0 .536-.11.67-.309v.265h.468v-1.06Zm-1.717 0c0-.375.245-.684.646-.684.38 0 .647.287.647.684 0 .375-.267.684-.646.684-.402-.023-.647-.31-.647-.684Zm-15.652 0v-1.06H6.89v.265a.809.809 0 0 0-.669-.308c-.602 0-1.07.463-1.07 1.103 0 .64.468 1.103 1.07 1.103.313 0 .536-.11.67-.309v.265h.467v-1.06Zm-1.739 0c0-.375.246-.684.647-.684.379 0 .647.287.647.684 0 .375-.268.684-.647.684-.401-.023-.647-.31-.647-.684Z" fill="#151618"/><path d="M9.476 1.699h7.023v12.487H9.476V1.7Z" fill="#FF5F00"/><path d="M9.922 7.943c0-2.538 1.204-4.788 3.054-6.244A8.03 8.03 0 0 0 8.026 0C3.59 0 0 3.552 0 7.943c0 4.39 3.59 7.942 8.026 7.942a8.03 8.03 0 0 0 4.95-1.699 7.901 7.901 0 0 1-3.054-6.243Z" fill="#EB001B"/><path d="M25.974 7.943c0 4.39-3.59 7.942-8.026 7.942a8.03 8.03 0 0 1-4.95-1.699 7.868 7.868 0 0 0 3.055-6.243c0-2.538-1.204-4.788-3.055-6.244A8.03 8.03 0 0 1 17.948 0c4.437 0 8.026 3.574 8.026 7.943Z" fill="#F79E1B"/></g><defs><clipPath id="a"><path fill="#fff" d="M0 0h26v20H0z"/></clipPath></defs></svg>
